X: 497
T: THE PEACE OF THE VALLEY
B: O'Neill's 497
Z: 1999 by John Chambers <jc@trillian.mit.edu>
N: "Moderate"
N: Collected by "(Balfe)"
N: 14 bars.
M: C
L: a/8
K:C
zG \
| G2(A>G) (GEGc) | e6 e2 | (e2d>)c B2(d>G) | c4 z2 ||
(G>A) \
| B2(c>B)(B2{d}c>)B | e2g2- (3g^fe (3edc | cB2G cB2A | G4 z2zG |
| G2(A>G) (GEGc) | (e2d)c Hf2(ga) |  G2(c>d) cB2G | g4- g(f/e/ d/c/B/A/) \
| _A2HG2 e{fe}dHfe | c4 z2 |]


